images/src/ic_order.svg

<svg
 xmlns="http://www.w3.org/2000/svg"
 xmlns:xlink="http://www.w3.org/1999/xlink"
 width="20px" height="21px">
<path fill-rule="evenodd"  fill="currentColor"
 d="M10.658,19.359 L10.658,8.777 C10.809,8.742 11.006,8.647 11.164,8.584 L18.107,5.742 C18.290,5.670 18.442,5.583 18.642,5.537 L18.642,16.078 L17.654,16.488 C17.320,16.621 16.985,16.764 16.661,16.892 L13.657,18.123 C13.319,18.257 13.002,18.381 12.663,18.527 C12.326,18.673 12.009,18.785 11.673,18.935 C11.498,19.013 11.358,19.064 11.175,19.136 C11.001,19.205 10.804,19.282 10.658,19.359 L10.658,19.359 ZM1.358,5.537 C1.524,5.575 1.571,5.608 1.717,5.672 L4.280,6.726 L4.289,10.163 C4.411,11.024 5.421,10.925 5.605,10.345 C5.671,10.137 5.638,7.640 5.638,7.301 C5.810,7.315 7.225,7.926 7.495,8.033 L8.865,8.596 C9.022,8.658 9.195,8.743 9.341,8.777 L9.341,19.359 L1.358,16.078 L1.358,5.537 L1.358,5.537 ZM10.000,7.588 C10.115,7.588 10.821,7.277 10.982,7.213 L13.809,6.052 C14.466,5.791 15.053,5.539 15.708,5.279 C16.034,5.150 16.361,5.017 16.668,4.882 C16.821,4.814 16.967,4.761 17.137,4.693 C17.319,4.621 17.423,4.556 17.613,4.512 L17.154,4.313 C16.708,4.134 14.142,3.035 13.951,3.035 C13.787,3.035 7.048,6.095 6.625,6.193 C6.731,6.336 9.995,7.588 10.000,7.588 L10.000,7.588 ZM4.897,5.496 C4.753,5.496 3.355,4.889 3.039,4.763 C2.827,4.679 2.603,4.562 2.387,4.512 C2.395,4.506 2.409,4.489 2.413,4.496 L2.493,4.454 C2.528,4.437 2.574,4.419 2.609,4.405 L10.000,1.394 C10.002,1.394 12.120,2.199 12.222,2.338 L4.897,5.496 L4.897,5.496 ZM-0.000,4.676 L-0.000,16.324 C-0.000,17.035 0.321,17.108 0.823,17.308 L6.014,19.436 C6.430,19.606 9.741,21.000 9.959,21.000 C10.286,21.000 12.175,20.193 12.674,19.973 C13.087,19.791 13.540,19.615 13.957,19.448 L19.148,17.320 C19.668,17.113 20.000,17.045 20.000,16.324 L20.000,4.676 C20.000,3.965 19.679,3.891 19.177,3.691 C18.736,3.515 18.310,3.330 17.866,3.152 C16.431,2.576 14.086,1.649 12.674,1.026 C12.171,0.805 10.281,-0.000 9.959,-0.000 C9.734,-0.000 8.880,0.398 8.642,0.492 C6.059,1.515 3.431,2.651 0.852,3.679 C0.332,3.887 -0.000,3.954 -0.000,4.676 Z"/>
</svg>

<svg xmlns="http://www.w3.org/2000/svg" viewBox="0 0 20 21"><path d="M10.66,19.36V8.78a3.47,3.47,0,0,0,.5-.2l7-2.84a3.05,3.05,0,0,1,.53-.2V16.08l-1,.41-1,.4-3,1.23c-.34.14-.66.26-1,.41s-.65.25-1,.4l-.49.21a3.13,3.13,0,0,0-.52.22ZM1.36,5.54a1.55,1.55,0,0,1,.36.13L4.28,6.73v3.43a.68.68,0,0,0,1.32.19c.06-.21,0-2.71,0-3,.17,0,1.58.63,1.85.73l1.37.57c.16.06.33.14.48.18V19.36l-8-3.28V5.54ZM10,7.59a7.79,7.79,0,0,0,1-.38l2.83-1.16,1.9-.77c.32-.13.65-.26,1-.4l.47-.19a3.8,3.8,0,0,1,.47-.18l-.46-.2C16.71,4.13,14.14,3,14,3S7.05,6.09,6.63,6.19c.1.15,3.36,1.4,3.37,1.4ZM4.9,5.5c-.15,0-1.54-.61-1.86-.74a5.78,5.78,0,0,0-.65-.25h0l.08,0,.12,0,7.39-3a21.72,21.72,0,0,1,2.22,1L4.9,5.5ZM0,4.68V16.32c0,.71.32.79.82,1L6,19.44c.42.17,3.73,1.56,4,1.56a18.79,18.79,0,0,0,2.71-1c.42-.18.87-.36,1.29-.52l5.19-2.13c.52-.21.85-.27.85-1V4.68c0-.72-.32-.79-.82-1s-.87-.36-1.31-.54c-1.44-.57-3.78-1.5-5.2-2.12A19.72,19.72,0,0,0,10,0,8.18,8.18,0,0,0,8.64.49C6.06,1.51,3.43,2.65.85,3.68.33,3.89,0,4,0,4.68Z" fill-rule="evenodd" fill="currentColor" /></svg>
